X:6
T:Hessian Dance
M:3/8
L:1/8
B:Thompson's Compleat Collection of 200 Favourite Country Dances, vol. 2 (London, 1765)
Z:Transcribed and edited by Flynn Titford-Mock, 2007
Z:abc's:AK/Fiddler's Companion
K:G
gdB | "tr"G>AG | DEF | G/F/G/A/G | gdB | "tr"G>AG | DEF | G3 :|
|: def | g2e | f/g/a/g/f/e/ | dDD | def | g2c | BA/G/A/F/ | G3 :|
|: d2e | B2c | AGF | GDg | d2e | B2c | AGF | G3 :|

